app/img/icons/logo.svg

<svg width="176" height="40" viewBox="0 0 176 40" fill="none" xmlns="http://www.w3.org/2000/svg">
<path d="M0 0.00056339L23.4763 0.00751316C27.116 0.00751316 30.7567 -0.0192931 34.3974 0.0283625C35.2053 0.0478058 36.0039 0.204247 36.7593 0.491018C38.5891 1.17905 39.572 2.60574 39.6008 4.52884C39.6643 8.76324 39.6475 12.9996 39.6008 17.237C39.5938 17.8029 39.2434 18.3867 38.9743 18.9248C38.8016 19.2683 38.4859 19.5404 38.2128 19.871C38.3409 20.008 38.4759 20.147 38.605 20.291C39.2841 21.0435 39.6514 21.8934 39.6435 22.9408C39.6167 26.7622 39.6336 30.5855 39.6326 34.4059C39.6326 37.4767 38.3419 39.0484 35.3297 39.6421C35.2662 39.6597 35.2047 39.6836 35.146 39.7136H0V0.00056339ZM32.6391 18.1693C32.9886 18.1693 33.2924 18.1276 33.5803 18.1772C34.5662 18.346 35.2502 17.8456 35.8837 17.2023C36.0622 17.031 36.2029 16.8242 36.2966 16.5952C36.3903 16.3662 36.435 16.1202 36.4277 15.8729C36.4099 12.398 36.4188 8.92308 36.4188 5.44819C36.4188 4.28858 35.3813 3.26398 34.2008 3.26398H3.38752V36.477H4.04973C13.978 36.477 23.9062 36.4641 33.8345 36.4958C34.8531 36.4958 35.5223 36.0262 36.1239 35.3511C36.3011 35.1354 36.401 34.8666 36.4079 34.5876C36.4257 30.9472 36.428 27.3068 36.4148 23.6666C36.4148 22.7671 35.1351 21.5499 34.2425 21.5459C33.7183 21.5459 33.1931 21.5459 32.6411 21.5459L32.6391 18.1693Z" fill="#F9FAFB"/>
<path d="M101.949 30.2818V9.46221C102.121 9.45228 102.266 9.43739 102.411 9.43739C105.156 9.43739 107.903 9.37981 110.651 9.45129C114.081 9.54064 117.052 10.7132 119.22 13.501C123.053 18.4255 121.941 28.4083 112.591 30.0703C111.76 30.2054 110.918 30.2718 110.076 30.2689C107.563 30.2937 105.049 30.2778 102.531 30.2778L101.949 30.2818ZM103.452 28.8918H104.036C106.038 28.8918 108.039 28.9097 110.041 28.8829C110.8 28.8811 111.559 28.8164 112.308 28.6893C120.107 27.2666 121.167 19.1383 118.301 14.8086C116.476 12.0515 113.743 10.9366 110.557 10.8294C108.326 10.7579 106.089 10.8155 103.858 10.8165C103.731 10.8165 103.603 10.8353 103.461 10.8462L103.452 28.8918Z" fill="#F9FAFB"/>
<path d="M150.711 9.46318H152.215V30.2341C151.499 30.3542 150.961 30.2966 150.428 29.6136C146.012 23.9148 141.543 18.2567 137.09 12.5866C137.024 12.5013 136.948 12.4238 136.8 12.256V30.2411H135.311V9.51679C136.161 9.27255 136.52 9.38474 137.034 10.04C141.499 15.7421 145.967 21.4432 150.437 27.1434C150.496 27.2199 150.564 27.2904 150.707 27.4532L150.711 9.46318Z" fill="#F9FAFB"/>
<path d="M86.6517 30.4247C81.0463 30.4247 77.1365 27.9099 75.6155 23.7728C73.1513 17.0712 77.1802 9.82955 84.8865 9.3242C88.1191 9.11075 91.0112 9.96361 93.4069 12.2143C95.1195 13.8227 96.1183 15.8243 96.4499 18.1405C96.8749 21.113 96.3248 23.884 94.4772 26.2976C92.2791 29.1718 89.2599 30.3811 86.6517 30.4247ZM85.7374 29.0129C89.2629 29.0129 92.3327 27.341 93.8676 24.4231C95.5405 21.2461 95.5236 18.0015 93.6392 14.9257C91.8164 11.9473 88.9938 10.6755 85.5517 10.7043C79.694 10.7539 75.4775 15.722 76.6163 21.6978C77.4661 26.1655 81.0919 29.0129 85.7374 29.0129Z" fill="#F9FAFB"/>
<path d="M174.397 19.9732H175.809C175.82 20.1271 175.839 20.2711 175.839 20.4131C175.839 22.7293 175.839 25.0446 175.848 27.3628C175.857 27.5005 175.831 27.6383 175.773 27.7636C175.715 27.8889 175.627 27.9978 175.516 28.0807C173.928 29.4071 172.077 30.0951 170.056 30.3314C167.157 30.6689 164.397 30.2271 161.965 28.5344C158.713 26.2727 157.312 23.0599 157.548 19.1681C157.899 13.4256 162.324 9.34998 168.13 9.29041C170.338 9.26857 172.443 9.64386 174.336 10.8403C174.904 11.1987 175.414 11.6464 176 12.0902L174.997 13.1664C173.952 12.1736 172.797 11.4489 171.445 11.0815C167.494 10.0172 163.098 11.0468 160.656 14.5802C157.064 19.7767 159.507 27.7987 166.911 28.8987C169.439 29.275 171.853 28.9146 174.012 27.4095C174.31 27.205 174.409 26.9816 174.404 26.6321C174.389 24.6137 174.396 22.5963 174.396 20.5759L174.397 19.9732Z" fill="#F9FAFB"/>
<path d="M72.2846 12.1756L71.2987 13.092C67.796 9.57137 61.1501 10.0142 57.9333 13.64C54.7325 17.242 54.794 22.7641 58.0832 26.238C61.3278 29.6642 67.6908 30.1398 71.3146 26.5666L72.2498 27.4949C69.3985 30.935 62.0774 31.7074 57.6454 27.899C53.1777 24.0657 52.859 16.7168 56.8819 12.5171C61.1362 8.07915 68.9884 8.4743 72.2846 12.1756Z" fill="#F9FAFB"/>
<path d="M127.918 30.254H126.474V9.47708H127.918V30.254Z" fill="#F9FAFB"/>
<path d="M26.6425 21.5449H17.722V18.207H29.891C29.899 18.3877 29.9138 18.5634 29.9138 18.7391C29.9138 21.7996 29.9138 24.8602 29.9138 27.9208C29.9138 30.2321 28.6678 31.4602 26.3397 31.4602H10.2559C8.11541 31.4602 6.82871 30.236 6.82076 28.0925C6.79892 22.5678 6.79892 17.041 6.82076 11.5124C6.83367 9.54257 8.14122 8.26282 10.1268 8.25885C15.6529 8.24892 21.1797 8.24892 26.707 8.25885C28.3412 8.25885 29.5266 9.12062 29.7719 10.727C29.9814 12.1001 29.9188 13.5159 29.9784 14.9436H26.707C26.707 14.1414 26.707 13.3689 26.707 12.5955C26.707 11.7596 26.5184 11.5739 25.6854 11.5739C20.8213 11.5739 15.9564 11.5739 11.0909 11.5739C10.2261 11.5729 10.0276 11.7606 10.0276 12.6094C10.0276 17.4239 10.0276 22.2378 10.0276 27.0511C10.0276 27.9118 10.2529 28.1382 11.1197 28.1432H25.7142C26.4092 28.1432 26.6951 27.9158 26.7001 27.2625C26.716 25.4268 26.705 23.5891 26.7001 21.7543C26.6873 21.6829 26.6679 21.6128 26.6425 21.5449Z" fill="#F9FAFB"/>
</svg>

<svg width="176" height="40" fill="none" xmlns="http://www.w3.org/2000/svg"><path d="M0 0l23.476.008c3.64 0 7.28-.027 10.921.02.808.02 1.607.176 2.362.463 1.83.688 2.813 2.115 2.842 4.038.063 4.234.047 8.47 0 12.708-.007.566-.358 1.15-.627 1.688-.172.343-.488.615-.761.946.128.137.263.276.392.42.68.753 1.046 1.602 1.039 2.65-.027 3.821-.01 7.645-.011 11.465 0 3.07-1.291 4.642-4.303 5.236a.977.977 0 00-.184.072H0V0zm32.64 18.17c.349 0 .652-.042.94.007.986.169 1.67-.331 2.304-.975a1.771 1.771 0 00.544-1.33c-.018-3.474-.01-6.949-.01-10.424 0-1.16-1.037-2.184-2.217-2.184H3.388v33.213h.662c9.928 0 19.856-.013 29.784.019 1.02 0 1.688-.47 2.29-1.145.177-.216.277-.484.284-.763.018-3.64.02-7.281.007-10.921 0-.9-1.28-2.117-2.172-2.121H32.64l-.002-3.377zm69.309 12.112V9.462c.172-.01.317-.025.462-.025 2.745 0 5.492-.057 8.24.014 3.43.09 6.401 1.262 8.569 4.05 3.833 4.925 2.721 14.907-6.629 16.57a15.35 15.35 0 01-2.515.198c-2.513.025-5.027.009-7.545.009l-.582.004zm1.503-1.39h.584c2.002 0 4.003.018 6.005-.01a13.752 13.752 0 002.267-.193c7.799-1.422 8.859-9.55 5.993-13.88-1.825-2.757-4.558-3.872-7.744-3.98-2.231-.071-4.468-.014-6.699-.013-.127 0-.255.02-.397.03l-.009 18.046zm47.259-19.429h1.504v20.771c-.716.12-1.254.063-1.787-.62-4.416-5.7-8.885-11.357-13.338-17.027-.066-.086-.142-.163-.29-.331v17.985h-1.489V9.517c.85-.244 1.209-.132 1.723.523a30446.82 30446.82 0 0013.403 17.103c.059.077.127.147.27.31l.004-17.99zM86.652 30.425c-5.606 0-9.516-2.515-11.037-6.652C73.151 17.07 77.18 9.83 84.888 9.324c3.232-.213 6.124.64 8.52 2.89 1.713 1.609 2.711 3.61 3.043 5.926.425 2.973-.125 5.744-1.973 8.158-2.198 2.874-5.217 4.083-7.825 4.127zm-.915-1.412c3.526 0 6.596-1.672 8.13-4.59 1.673-3.177 1.657-6.421-.228-9.497-1.823-2.979-4.645-4.25-8.087-4.222-5.858.05-10.075 5.018-8.936 10.994.85 4.468 4.476 7.315 9.121 7.315zm88.66-9.04h1.412c.011.154.03.298.03.44 0 2.316 0 4.632.009 6.95a.826.826 0 01-.332.718c-1.588 1.326-3.439 2.014-5.46 2.25-2.899.338-5.659-.104-8.091-1.797-3.252-2.261-4.653-5.474-4.417-9.366.351-5.742 4.776-9.818 10.582-9.878 2.208-.021 4.313.354 6.206 1.55.568.359 1.078.806 1.664 1.25l-1.003 1.076c-1.045-.992-2.2-1.717-3.552-2.085-3.951-1.064-8.347-.034-10.789 3.5-3.592 5.196-1.149 13.218 6.255 14.318 2.528.376 4.942.016 7.101-1.49.298-.204.397-.427.392-.777-.015-2.018-.008-4.036-.008-6.056l.001-.603zM72.285 12.176l-.986.916c-3.503-3.52-10.149-3.078-13.366.548-3.2 3.602-3.139 9.124.15 12.598 3.245 3.426 9.608 3.902 13.232.329l.935.928c-2.852 3.44-10.173 4.212-14.605.404-4.467-3.833-4.786-11.182-.763-15.382 4.254-4.438 12.106-4.043 15.403-.341zm55.633 18.078h-1.444V9.477h1.444v20.777z" fill="#F9FAFB"/><path d="M26.642 21.545h-8.92v-3.338h12.169c.008.18.023.356.023.532v9.182c0 2.311-1.246 3.54-3.574 3.54H10.256c-2.14 0-3.427-1.225-3.435-3.368-.022-5.525-.022-11.052 0-16.58.013-1.97 1.32-3.25 3.306-3.254 5.526-.01 11.053-.01 16.58 0 1.634 0 2.82.862 3.065 2.468.21 1.373.147 2.789.206 4.217h-3.271v-2.349c0-.835-.189-1.021-1.022-1.021H11.091c-.865-.001-1.063.187-1.063 1.035v14.442c0 .86.225 1.087 1.092 1.092h14.594c.695 0 .981-.227.986-.88.016-1.836.005-3.674 0-5.509a1.205 1.205 0 00-.058-.21z" fill="#F9FAFB"/></svg>
